!!!SOCIAL_FUNCTION:	war songs
!!!PDT:	1922
!!!OTL: No_69_War_Song_(c).krn
!!!REG: Southwest
!!!LANG: Non-Tone
!!!LING_GROUP: Uto-Aztecan
**kern	**kern
*staff2	*staff1
=1-	=1-
*clefF4	*clefF4
*k[b-e-a-d-g-]	*k[b-e-a-d-g-]
*M2/4	*M2/4
8GG-/L	8.d-\L
8GG-/J	.
.	16A-\Jk
8GG-/L	16d-\LL
.	16A-\J
8GG-/J	8A-\J
=2	=2
8GG-/L	8d-\L
8GG-/J	8B-\J
8GG-/L	16A-\LL
.	16F\
8GG-/J	16F\
.	16D-\JJ
=3	=3
2r	8.d-\L
.	16A-\Jk
.	16d-\LL
.	16A-\J
.	8A-\J
=4	=4
2r	8d-\L
.	8B-\J
.	16A-\LL
.	16F\
.	16F\
.	16D-\JJ
=5	=5
2r	8.A-\L
.	16F\Jk
.	8E-\L
.	8D-\J
=6||	=6||
*M3/4	*M3/4
2.r	16E-\LK
.	8.E-\J
.	4E-;\
.	8E-\L
.	8E-\J
=7||	=7||
*M2/4	*M2/4
2r	4D-\
.	8D-\L
.	8D-\J
=8	=8
2r	4D-\
.	4D-\
=9	=9
2r	8.A-\L
.	16F\Jk
.	16A-\LL
.	16E-\J
.	8E-\J
=10	=10
2r	8A-\L
.	8F\J
.	16E-\LL
.	16D-\J
.	8D-\J
=11	=11
2r	8.A-\L
.	16F\Jk
.	16A-\LL
.	16E-\J
.	8E-\J
=12	=12
2r	8A-\L
.	8F\J
.	16E-\LL
.	16D-\J
.	8D-\J
=13||	=13||
*M3/4	*M3/4
2.r	8E-\L
.	8E-\J
.	4E-;\
.	8E-\L
.	8E-\J
=14||	=14||
*M2/4	*M2/4
2r	4D-\
.	8D-\L
.	8D-\J
=15	=15
2r	4D-\
.	4D-\
==	==
*-	*-
